static/assets/images/exchanges/velodrome.svg

<svg width="293" height="256" viewBox="0 0 293 256" fill="none" xmlns="http://www.w3.org/2000/svg">
<path d="M18.5856 64.1934C29.2015 45.4286 73.883 22.6615 167.684 81.71C210.709 108.795 237.219 141.591 252.919 172.607C255.915 178.827 261.108 194.662 257.918 208.237C256.669 213.55 251.555 223.111 244.967 233.916C246.141 231.349 246.977 229.137 247.39 227.385C250.589 213.811 245.315 197.963 242.277 191.735C226.361 160.682 199.522 127.829 156.008 100.659C77.6832 51.755 33.2841 58.6973 14.1635 73.1592L18.5856 64.1934Z" fill="#FF1100"/>
<path d="M22.7009 47.246C33.523 28.5169 79.3443 5.94629 176.054 65.4986C220.414 92.8143 247.824 125.766 264.113 156.884C267.223 163.124 272.638 178.997 269.423 192.568C268.165 197.88 262.956 207.424 256.234 218.207C257.429 215.644 258.278 213.432 258.694 211.681C261.917 198.111 256.418 182.224 253.266 175.976C236.755 144.821 209.005 111.81 164.142 84.4072C83.3919 35.0833 37.7838 41.8165 18.1993 56.1973L22.7009 47.246Z" fill="#FDBF41"/>
<path d="M34.9042 33.906C36.2716 31.5392 38.198 29.1111 40.7154 26.7951C41.5889 25.9915 42.5337 25.2013 43.5509 24.4319C62.7995 9.87236 108.009 2.74313 188.257 52.1586C232.617 79.4742 260.027 112.426 276.316 143.544C279.426 149.784 284.841 165.657 281.627 179.228C280.369 184.54 275.158 194.084 268.438 204.867C269.631 202.303 270.482 200.092 270.897 198.341C274.12 184.772 268.621 168.884 265.469 162.636C248.957 131.48 221.208 98.4699 176.346 71.0672C95.5952 21.7433 49.9871 28.4764 30.4018 42.8572L34.9042 33.906Z" fill="#F4F4F4"/>
<path d="M250.192 235.805C239.312 254.524 193.171 277.04 95.6462 217.346C50.9131 189.966 23.2503 156.97 6.79598 125.824C0.747301 114.374 -1.82293 103.695 1.39792 90.1251C3.21827 82.4535 13.3336 65.964 24.3458 49.6669C24.2191 51.5176 24.1092 53.3066 24.0035 55.0137C23.622 61.2058 23.3053 66.3302 22.5557 69.5056C19.3504 83.0773 24.6837 98.9358 27.7512 105.169C43.8218 136.249 70.8974 169.143 114.762 196.373C194.205 245.69 238.983 238.41 258.026 223.788L250.192 235.805Z" fill="#FF1100"/>
<path d="M261.385 220.082C250.425 238.787 203.839 261.226 105.176 201.336C59.9212 173.864 31.907 140.808 15.2227 109.622C12.0367 103.368 6.47283 87.4698 9.70239 73.9023C11.1125 67.9792 17.5098 56.8064 25.4613 44.527C22.9443 49.1903 21.1761 53.1265 20.5131 55.9064C17.2767 69.4735 22.8988 85.3819 26.1144 91.6402C42.9526 122.853 71.201 155.95 116.804 183.481C216.224 243.502 261.923 219.921 272.937 201.225L281.775 185.096L261.385 220.082Z" fill="#FDBF41"/>
<path d="M271.324 205.249C260.284 223.941 213.253 246.301 113.453 186.215C67.6762 158.654 39.3106 125.537 22.3959 94.3105C19.1648 88.0496 13.514 72.1362 16.7532 58.5696C18.2165 52.4402 25.0688 40.6944 33.4707 27.9208C31.1716 32.3335 29.5568 36.058 28.9188 38.7155C25.6612 52.2782 30.5023 67.9384 33.8218 74.2146C51.1969 105.521 80.2662 138.759 127.086 166.5C214.242 218.142 264.24 201.451 282.656 186.354L271.324 205.249Z" fill="#F4F4F4"/>
<path fill-rule="evenodd" clip-rule="evenodd" d="M46.5141 35.7817C33.1129 63.1494 68.4601 111.735 128.281 150.175C190.039 189.861 253.983 200.305 271.104 173.505L271.115 173.523C284.517 146.155 249.17 97.5692 189.348 59.1283C127.59 19.443 63.6461 8.99768 46.5253 35.7989L46.5141 35.7817ZM280.304 190.873C267.556 209.17 220.105 228.645 122.328 170.091C76.2029 142.47 49.6268 112.649 32.5595 81.3963C24.8802 67.3338 23.273 55.2058 26.6075 39.532C28.0181 32.8992 29.8336 26.5793 39.0228 16.2331C37.9585 17.4831 37.0597 18.7424 36.3214 19.9856L40.7154 26.7951C41.5889 25.9915 42.5337 25.2013 43.5509 24.4319L39.2724 15.9531C39.1886 16.0467 39.1054 16.1401 39.0228 16.2331C53.951 -1.3002 101.437 -16.9988 195.302 39.2118C241.426 66.8327 269.993 100.254 283.017 124.51C291.508 140.325 293.867 153.322 291.021 169.772C289.72 175.89 286.882 182.937 280.304 190.873Z" fill="#007FFF"/>
<path d="M39.0228 16.2331C37.9585 17.4831 37.0597 18.7424 36.3214 19.9856L40.7154 26.7951C41.5889 25.9915 42.5337 25.2013 43.5509 24.4319L39.2724 15.9531C39.1886 16.0467 39.1054 16.1401 39.0228 16.2331Z" fill="#007FFF"/>
</svg>

<svg xmlns="http://www.w3.org/2000/svg" fill="none" viewBox="0 0 293 256"><path fill="#F10" d="M18.586 64.193C29.202 45.43 73.883 22.662 167.684 81.71c43.025 27.085 69.535 59.881 85.235 90.897 2.996 6.22 8.189 22.055 4.999 35.63-1.249 5.313-6.363 14.874-12.951 25.679 1.174-2.567 2.01-4.779 2.423-6.531 3.199-13.574-2.075-29.422-5.113-35.65-15.916-31.053-42.755-63.906-86.269-91.076-78.325-48.904-122.724-41.962-141.844-27.5z"/><path fill="#FDBF41" d="M22.7 47.246c10.823-18.73 56.644-41.3 153.354 18.253 44.36 27.315 71.77 60.267 88.059 91.385 3.11 6.24 8.525 22.113 5.31 35.684-1.258 5.312-6.467 14.856-13.189 25.639 1.195-2.563 2.044-4.775 2.46-6.526 3.223-13.57-2.276-29.457-5.428-35.705-16.511-31.155-44.261-64.166-89.124-91.569-80.75-49.324-126.358-42.59-145.943-28.21z"/><path fill="#F4F4F4" d="M34.904 33.906c1.368-2.367 3.294-4.795 5.811-7.11a38 38 0 0 1 2.836-2.364C62.8 9.872 108.009 2.743 188.257 52.159c44.36 27.315 71.77 60.267 88.059 91.385 3.11 6.24 8.525 22.113 5.311 35.684-1.258 5.312-6.469 14.856-13.189 25.639 1.193-2.564 2.044-4.775 2.459-6.526 3.223-13.569-2.276-29.457-5.428-35.705-16.512-31.156-44.261-64.166-89.123-91.569-80.75-49.324-126.359-42.59-145.944-28.21z"/><path fill="#F10" d="M250.192 235.805c-10.88 18.719-57.021 41.235-154.546-18.459-44.733-27.38-72.396-60.376-88.85-91.522-6.049-11.45-8.619-22.129-5.398-35.699 1.82-7.671 11.936-24.161 22.948-40.458-.127 1.85-.237 3.64-.343 5.347-.381 6.192-.698 11.316-1.447 14.492-3.206 13.571 2.128 29.43 5.195 35.663 16.07 31.08 43.146 63.974 87.011 91.204 79.443 49.317 124.221 42.037 143.264 27.415z"/><path fill="#FDBF41" d="M261.385 220.082c-10.96 18.705-57.546 41.144-156.209-18.746-45.255-27.472-73.269-60.528-89.953-91.714-3.186-6.254-8.75-22.152-5.52-35.72 1.41-5.923 7.807-17.096 15.758-29.375-2.517 4.663-4.285 8.6-4.948 11.38-3.236 13.567 2.386 29.475 5.601 35.733 16.839 31.213 45.087 64.31 90.69 91.841 99.42 60.021 145.119 36.44 156.133 17.744l8.838-16.129z"/><path fill="#F4F4F4" d="M271.324 205.249c-11.04 18.692-58.071 41.052-157.871-19.034-45.777-27.561-74.142-60.678-91.057-91.904-3.231-6.261-8.882-22.175-5.643-35.741 1.463-6.13 8.316-17.876 16.718-30.65-2.3 4.413-3.914 8.138-4.552 10.795-3.258 13.563 1.583 29.223 4.903 35.5 17.375 31.306 46.444 64.544 93.264 92.285 87.156 51.642 137.154 34.951 155.57 19.854z"/><path fill="#007FFF" fill-rule="evenodd" d="M46.514 35.782c-13.401 27.367 21.946 75.953 81.767 114.393 61.758 39.686 125.702 50.13 142.823 23.33l.011.018c13.402-27.368-21.945-75.954-81.767-114.395C127.59 19.443 63.646 8.998 46.525 35.798zm233.79 155.091c-12.748 18.297-60.199 37.772-157.976-20.782-46.125-27.621-72.701-57.442-89.768-88.695-7.68-14.062-9.287-26.19-5.953-41.864 1.411-6.633 3.227-12.953 12.416-23.299a27.4 27.4 0 0 0-2.702 3.753l4.394 6.81a38 38 0 0 1 2.836-2.364l-4.279-8.479-.25.28C53.952-1.3 101.438-16.999 195.303 39.212c46.124 27.62 74.691 61.042 87.715 85.298 8.491 15.815 10.85 28.812 8.004 45.262-1.301 6.118-4.139 13.165-10.717 21.101" clip-rule="evenodd"/><path fill="#007FFF" d="M39.023 16.233a27.4 27.4 0 0 0-2.702 3.753l4.394 6.81a38 38 0 0 1 2.836-2.364l-4.279-8.479z"/></svg>
